X:119
T:The humours of Scartaglen
R:Reel
O:Ireland
B:Music from Ireland Vol. 3 n21
S:Music from Ireland Vol. 3 n21
Z:Transcription, arrangement, chords:Mike Long
M:C|
L:1/8
K:D
"D"DFEF D2Ad|"A"cAGE "G"EFGE|"D"DFEF D2dB|"A"cAGE "G"AD~D2|\
"D"DFEF D2Ad|
"A"cAGE "G"EFGB|"D"Ad~d2 "G"dfed|"A"cAGE "D"ED D|]\
e|\
"D"~f2fe fdge|"D"fdge "A"afde|
"D"~f2fe fage|"D"~f2ec "A"Adde|\
"D"~f2fe fdge|"D"fdge "A"afge|"D"fage "G"dfed|"A"dcAG EFGE|]
